svgs/duotone/pallet-box.svg

<svg xmlns="http://www.w3.org/2000/svg" viewBox="0 0 640 512"><!--! Font Awesome Pro 6.6.0 by @fontawesome - https://fontawesome.com License - https://fontawesome.com/license (Commercial License) Copyright 2024 Fonticons, Inc. --><defs><style>.fa-secondary{opacity:.4}</style></defs><path class="fa-secondary" d="M0 352c0 17.7 14.3 32 32 32l32 0 0 64-32 0c-17.7 0-32 14.3-32 32s14.3 32 32 32l64 0 224 0 224 0 64 0c17.7 0 32-14.3 32-32s-14.3-32-32-32l-32 0 0-64 32 0c17.7 0 32-14.3 32-32s-14.3-32-32-32l-64 0-224 0L96 320l-64 0c-17.7 0-32 14.3-32 32zm128 32l160 0 0 64-160 0 0-64zM256 0l0 16 0 96c0 5.9 3.2 11.3 8.5 14.1s11.5 2.5 16.4-.8L320 99.2l39.1 26.1c4.9 3.3 11.2 3.6 16.4 .8s8.5-8.2 8.5-14.1l0-96 0-16L368 0 272 0 256 0zm96 384l160 0 0 64-160 0 0-64z"/><path class="fa-primary" d="M256 0L176 0c-26.5 0-48 21.5-48 48l0 160c0 26.5 21.5 48 48 48l288 0c26.5 0 48-21.5 48-48l0-160c0-26.5-21.5-48-48-48L384 0l0 112c0 5.9-3.2 11.3-8.5 14.1s-11.5 2.5-16.4-.8L320 99.2l-39.1 26.1c-4.9 3.3-11.2 3.6-16.4 .8s-8.5-8.2-8.5-14.1L256 0z"/></svg>

<svg xmlns="http://www.w3.org/2000/svg" viewBox="0 0 640 512"><!--! Font Awesome Pro 6.4.0 by @fontawesome - https://fontawesome.com License - https://fontawesome.com/license (Commercial License) Copyright 2023 Fonticons, Inc. --><defs><style>.fa-secondary{opacity:.4}</style></defs><path class="fa-primary" d="M256 0H176c-26.5 0-48 21.5-48 48V208c0 26.5 21.5 48 48 48H464c26.5 0 48-21.5 48-48V48c0-26.5-21.5-48-48-48H384V112c0 5.9-3.2 11.3-8.5 14.1s-11.5 2.5-16.4-.8L320 99.2l-39.1 26.1c-4.9 3.3-11.2 3.6-16.4 .8s-8.5-8.2-8.5-14.1V0z"/><path class="fa-secondary" d="M256 0V16v96c0 5.9 3.2 11.3 8.5 14.1s11.5 2.5 16.4-.8L320 99.2l39.1 26.1c4.9 3.3 11.2 3.6 16.4 .8s8.5-8.2 8.5-14.1V16 0H368 272 256zM32 320c-17.7 0-32 14.3-32 32s14.3 32 32 32H64v64H32c-17.7 0-32 14.3-32 32s14.3 32 32 32H96 320 544h64c17.7 0 32-14.3 32-32s-14.3-32-32-32H576V384h32c17.7 0 32-14.3 32-32s-14.3-32-32-32H544 320 96 32zm96 128V384H288v64H128zm224 0V384H512v64H352z"/></svg>
